X: 105
P: Bron \"over Sveg
R: polska
C: Kalle Alml\"of
Z: 1998 by John Chambers <jc@trillian.mit.edu>
N: From a nearly-illegible multi-xeroxed handwritten ms.
M: 3/4
L: 1/8
K: D
D- \
|: "D"D>F A>F (3DEF | "Em"(3G2B2G2 E2- | "A7"E>c e>d c>A | "G"(3BGB "A7"A3 F | "D"D>F A>F (3DEF |
| "Em"(3G2B2G2 E2- | "A7"E>c e>d c>B |1,3 "A7"(3ABc "D"d3F :|2,4 "A7"(3ABc "D"d3f |: "D"a>f a<f d>f | "Em"a>g b<g e>d |
| "A7"c>e- e>d c>A | "G"(3BGB "A7"A3f | "D"a>f a<f d>f | "Em"a>g b<g e>d | "A7"c>e- e>d c>B |1,3 "A7"(3ABc "D"d3 f :|2,4 "A7"(3ABc "D"d4 :|
